public/images/bgDark.svg

<svg width="1512" height="568" viewBox="0 0 1512 568" fill="none" xmlns="http://www.w3.org/2000/svg">
<path fill-rule="evenodd" clip-rule="evenodd" d="M256.981 177.4L673.313 757H-159.351L256.981 177.4Z" fill="#252525"/>
<path fill-rule="evenodd" clip-rule="evenodd" d="M256.981 200.237L673.313 779.837H-159.351L256.981 200.237Z" fill="#1A1A1A"/>
<path fill-rule="evenodd" clip-rule="evenodd" d="M47.6225 271.113L393.75 757H-298.506L47.6225 271.113Z" fill="#252525"/>
<path fill-rule="evenodd" clip-rule="evenodd" d="M48.4099 292.375L394.537 778.262H-297.718L48.4099 292.375Z" fill="#1A1A1A"/>
<path fill-rule="evenodd" clip-rule="evenodd" d="M405.562 220.713L688.275 757H122.85L405.562 220.713Z" fill="#252525"/>
<path fill-rule="evenodd" clip-rule="evenodd" d="M405.562 245.125L688.275 781.413H122.85L405.562 245.125Z" fill="#1A1A1A"/>
<path fill-rule="evenodd" clip-rule="evenodd" d="M1380.74 177.4L1797.07 757H964.411L1380.74 177.4Z" fill="#252525"/>
<path fill-rule="evenodd" clip-rule="evenodd" d="M1380.74 199.45L1797.07 779.05H964.411L1380.74 199.45Z" fill="#1A1A1A"/>
<path fill-rule="evenodd" clip-rule="evenodd" d="M740.417 0.212494L1313.1 757H167.737L740.417 0.212494Z" fill="#252525"/>
<path fill-rule="evenodd" clip-rule="evenodd" d="M740.417 26.2L1313.1 782.988H167.737L740.417 26.2Z" fill="#1A1A1A"/>
<path fill-rule="evenodd" clip-rule="evenodd" d="M1020.07 80.5375L1505.98 757H534.158L1020.07 80.5375Z" fill="#252525"/>
<path fill-rule="evenodd" clip-rule="evenodd" d="M1020.07 104.162L1505.98 780.625H534.158L1020.07 104.162Z" fill="#1A1A1A"/>
<path fill-rule="evenodd" clip-rule="evenodd" d="M706.131 404.594L1122.46 984.194H289.8L706.131 404.594Z" fill="#252525"/>
<path fill-rule="evenodd" clip-rule="evenodd" d="M706.131 427.431L1122.46 1007.03H289.8L706.131 427.431Z" fill="#1A1A1A"/>
<path fill-rule="evenodd" clip-rule="evenodd" d="M1089.64 455.781L1505.98 1035.38H673.312L1089.64 455.781Z" fill="#252525"/>
<path fill-rule="evenodd" clip-rule="evenodd" d="M1089.64 478.619L1505.98 1058.22H673.312L1089.64 478.619Z" fill="#1A1A1A"/>
</svg>

<svg xmlns="http://www.w3.org/2000/svg" width="1512" height="568" fill="none" xmlns:v="https://vecta.io/nano"><style><![CDATA[.B{fill:#252525}.C{fill:#1a1a1a}]]></style><g fill-rule="evenodd"><path d="M256.981 177.4L673.313 757H-159.351L256.981 177.4Z" class="B"/><path d="M256.981 200.237l416.332 579.6h-832.664l416.332-579.6z" class="C"/><path d="M47.623 271.113L393.75 757h-692.256L47.623 271.113z" class="B"/><path d="M48.41 292.375l346.127 485.887h-692.255L48.41 292.375z" class="C"/><path d="M405.562 220.713L688.275 757H122.85L405.562 220.713Z" class="B"/><path d="M405.562 245.125L688.275 781.413H122.85L405.562 245.125Z" class="C"/><path d="M1380.74 177.4L1797.07 757H964.411L1380.74 177.4Z" class="B"/><path d="M1380.74 199.45l416.33 579.6H964.411l416.329-579.6z" class="C"/><path d="M740.417.212L1313.1 757H167.737L740.417.212z" class="B"/><path d="M740.417 26.2L1313.1 782.988H167.737L740.417 26.2Z" class="C"/><path d="M1020.07 80.538L1505.98 757H534.158L1020.07 80.538z" class="B"/><path d="M1020.07 104.162l485.91 676.463H534.158l485.912-676.463z" class="C"/><path d="M706.131 404.594l416.329 579.6H289.8l416.331-579.6z" class="B"/><path d="M706.131 427.431L1122.46 1007.03H289.8L706.131 427.431Z" class="C"/><path d="M1089.64 455.781l416.34 579.599H673.312l416.328-579.599z" class="B"/><path d="M1089.64 478.619l416.34 579.601H673.312l416.328-579.601z" class="C"/></g></svg>
